X:1
T:Defend me, Lord, from shame
T:Defend me, Lord, from shame (John Wall Callcott)
C:John Wall Callcott
Z:p35, The Psalms of David,
Z:ed. Samuel Arnold,
Z:London: 1791
%%score [ 1 2 3 4 ]
L:1/8
M:4/2
K:A
V:1 treble nm="Soprano" snm="S."
V:2 treble nm="Alto" snm="A."
V:3 treble-8 transpose=-12 nm="Tenor" snm="T."
V:4 bass nm="Bass" snm="B."
V:1
 (c3 B) | A4 A4 B4 (A2 G2) | A4 c4 B4 (B3 A) | (G2 F2) E4 A4 c4 | d4 f4 e4 (d2 c2) | %5
w: Since _|thou, since thou, when _|foes op- press, My _|rock _ and for- tress,|rock and fort- ress _|
w: De- *|fend, de- fend me, _|Lord, from shame, For _|still _ I trust, for|still I trust in _|
w: Bow _|down, bow down thy _|gra- cious ear, And _|spee- * dy suc- cour,|spee- dy suc- cour _|
 (c4 B4) z2 B2 A2 B2 | G6 G2 A4 (B2 c2) | d2 d2 e2 f2 e2 c2 B2 A2 | G4 z4 z8 | z16 | %10
w: art, _ To guide me|forth from this dis- *|tress, to guide me forth from this dis-|tress,||
w: thee: _ As just and|right- teous is thy _|name, as just and right- eous is thy|name,||
w: send; _ Do thou my|sted- fast rock ap- *|pear, do thou my sted- fast rock ap-|pear,||
 z2 c2 (e8 d4- | d2 e2) (c2 d2) c4 B4 | A12 |] %13
w: Thy won- *|* * ted _ help im-|part.|
w: From dan- *|* * ger _ set me|free.|
w: To shel- *|* * ter _ and de-|fend.|
V:2
 (A3 G) | A4 C4 D4 (C2 B,2) | A,4 E4 E4 z4 | z4 (E3 D) (C2 B,2) A,4 | A,4 A4 E4 F4 | E8 z8 | %6
w: Since _|thou, since thou, when _|foes op- press,|My _ rock _ and|for- tress, fort- ress|art,|
w: De- *|fend, de- fend me, _|Lord, from shame,|For _ still _ I|trust, I trust in|thee:|
w: Bow _|down, bow down thy _|gra- cious ear,|And _ spee- * dy|suc- cour, suc- cour|send;|
 z2 E2 D2 E2 C4 E4 | A,4 A,4 A,4 z4 | z4 E4 F6 F2 | E2 D2 C2 A2 B,2 F2 E2 D2 | C4 z2 E2 (F6 GA | %11
w: To guide me forth from|this dis- tress,|Thy won- ted|help im- part, thy won- ted help im-|part, thy won- * *|
w: As just and right- teous|is thy name,|From dan- ger|set me free, from dan- ger set me|free, from dan- * *|
w: Do thou my sted- fast|rock ap- pear,|To shel- ter|and de- fend, to shel- ter and de-|fend, to shel- * *|
 E6) F2 E4 D4 | C12 |] %13
w: * ted help im-|part.|
w: * ger set me|free.|
w: * ter and de-|fend.|
V:3
 e4 | e4 f4 F4 E4 | E4 A4 G4 z4 | z8 z4 e4 | f4 A4 c4 (B2 A2) | (A4 G4) z8 | z16 | %7
w: Since|thou, since thou, when|foes op- press,|My|rock and for- tress _|art, _||
w: De-|fend, de- fend me,|Lord, from shame,|For|still I trust in _|thee: _||
w: Bow|down, bow down thy|gra- cious ear,|And|spee- dy suc- cour _|send; _||
 z2 d2 c2 d2 c2 e2 d2 c2 | B4 z2 c2 (dc)(dc) (BA)(BA) | G2 (FG) A4- A2 (GF) G2 E2 | A4 z4 z8 | %11
w: To guide me forth from this dis-|tress, Thy won- * ted _ help _ im- *|part, thy _ won- * ted _ help im-|part,|
w: As just and right- teous is thy|name, From dan- * ger _ set _ me _|free, from _ dan- * ger _ set me|free,|
w: Do thou my sted- fast rock ap-|pear, To shel- * ter _ and _ de- *|fend, to _ shel- * ter _ and de-|fend,|
 z2 B2 A2 A2 A4 G4 | A12 |] %13
w: thy won- ted help im-|part.|
w: from dan- ger set me|free.|
w: to shel- ter and de-|fend.|
V:4
 (A,3 B,) |"^6" C4 F,4"^6" D,4"^64""^53" E,4 |"^6" C,4 A,,4 E,4 z4 | z8 z4 (A,3 G,) | %4
w: Since _|thou, since thou, when|foes op- press,|My _|
w: De- *|fend, de- fend me,|Lord, from shame,|For _|
w: Bow _|down, bow down thy|gra- cious ear,|And _|
"^6" (F,2 E,2) D,4"^6" C,4"^86""^75" D,4 |"^64""^53" E,8 z8 | z8 z2 A,2"^6" G,2 A,2 | %7
w: rock _ and for- tress|art,|To guide me|
w: still _ I trust in|thee:|As just and|
w: spee- * dy suc- cour|send;|Do thou my|
"^6" F,4"^6" (E,2 D,2) A,4 A,,4 | E,4 z4 z8 | z16 | %10
w: forth from _ this dis-|tress,||
w: right- teous _ is thy|name,||
w: sted- fast _ rock ap-|pear,||
"^The first verse only of the text is underlaid in the source, with verses 2-5 printed after the music. The parts are identified in thesource as Treble, Counter, Tenor and Bass: the top three parts are in the treble clef, with the Counter and Tenor an octave abovesounding pitch. The original time signature is common time, but the piece is barred with four minims to a bar." z4 z2"^6" C2"^9" (DC)(DC)"^3" (B,A,)(B,A,) | %11
w: Thy won- * ted _ help _ im- *|
w: From dan- * ger _ set _ me _|
w: To shel- * ter _ and _ de- *|
"^65" G,2"^-" E,2 A,2 D,2"^64" E,4"^53" E,4 | A,,12 |] %13
w: part, thy won- ted help im-|part.|
w: free, from dan- ger set me|free.|
w: fend, to shel- ter and de-|fend.|

